X: 40006
T: Three Men On A White Horse
R: reel
M: 4/4
K: Amajor
a2ga (3faf ec|dcdf e2ef|a2ba gfed|BAGB A2b2|
a2ga (3faf ec|dcdf e2e2|cBAc ecAc|BAGB A2AB||
|:c2e2 A2AB|c2e2 A2AB|c2e2 A2e2|1 EFGB A2AB:|2 EFGB A2A2||
K: Amix
|:A2{B}A2 GFED|F2F2 E2E2|1 A2{B}A2 GFED|FEDF EDCE:|2 FGAG FEDF|EDCE A,2A,B,||
K: Amaj
|:C2EC A,2A,B,|C2EC A,2A,B,|1 C2E2 A,2E2|B,2EB, A,2A,B,:|2 C2EC A,2E2|B,4 A,4||

